public/avatar/body/49.svg

<svg xmlns:xlink="http://www.w3.org/1999/xlink" height="82" width="84.85" xmlns="http://www.w3.org/2000/svg"><g transform="translate(37.4 42.25)"><use height="38" transform="translate(-11.95 -17.45)" width="32.05" xlink:href="#a"/><use height="21.6" transform="translate(-12.25 -17.95)" width="32.65" xlink:href="#b"/><use height="20.9" transform="translate(3.5 2.85)" width="18.6" xlink:href="#c"/><use height="20.9" transform="matrix(-1 0 0 1 4.6 2.85)" width="18.6" xlink:href="#c"/></g><defs><use height="38" width="32.05" xlink:href="#d" id="a"/><use height="21.6" width="32.65" xlink:href="#e" id="b"/><use height="20.9" width="18.6" xlink:href="#f" id="c"/><path d="M27.35 7.4q2.15 4.15 3.55 8.75 1.45 4.7 1.15 9.5-.35 4.95-4.2 8.1-3.8 3.2-8.75 4.05l-2.6.2q-3.6 0-7.05-1.15-4.65-1.6-7.1-5.5Q-.2 27.4.05 23q.2-4.4 2-9.3Q3.85 8.75 7 5.05 10.1 1.3 14.7.1l1.8-.1q1.9.05 3.7.8 4.75 2.05 7.15 6.6" fill="#fff" fill-rule="evenodd" transform="translate(-.05)" id="d"/><path d="M31.9 20.6q-.3-2.25-1-4.45-1.4-4.6-3.55-8.75-2.4-4.55-7.15-6.6-2.65-1.1-5.5-.7Q10.1 1.3 7 5.05q-3.15 3.7-4.95 8.65Q.7 17.3.25 20.6" fill="none" stroke="#000" stroke-linecap="round" stroke-linejoin="round" transform="translate(.25 .5)" id="e"/><g id="f"><path d="M15.2.95Q14.95 3.6 13.8 6l-1.3 2.05q-.9 1.1-2.15 1.95-1.45.9-3.1.85L6.7 9.8l-.4-.55L4.95 7.9 4.1 3.5q2.95 1.35 3.1 3.65 4.8-1.6 8-6.2" fill="#600" fill-rule="evenodd" transform="translate(.5 .5)"/><path d="m15.8 0-.6.95q-3.2 4.6-8 6.2-.15-2.3-3.1-3.65 5.95-.25 11.7-3.5" fill="#c00" fill-rule="evenodd" transform="translate(.5 .5)"/><path d="M4.95 7.9 6.3 9.25l.4.55.55 1.05q1.65.05 3.1-.85 1.25-.85 2.15-1.95L13.8 6q1.15-2.4 1.4-5.05l.6-.95 1.8 13.5q-4.3 3.2-9.25 4.35l-1.5.3-1.1-5.8-.4-2.3-.4-2.15" fill="#900" fill-rule="evenodd" transform="translate(.5 .5)"/><path d="m5.35 10.05.4 2.3-3.45.35H0v-2.25l5.35-.4" fill="#333" fill-rule="evenodd" transform="translate(.5 .5)"/><path d="m5.75 12.35 1.1 5.8 1.5-.3-.8.45Q4.1 20.3 1 19.8v-2.15l-1 .05v-5h2.3l3.45-.35m-2.3 4.3q-.7.6-1.8.85l-.65.15.65-.15q1.1-.25 1.8-.85" fill="#666" fill-rule="evenodd" transform="translate(.5 .5)"/><path d="m4.95 7.9.4 2.15.4 2.3 1.1 5.8 1.5-.3q4.95-1.15 9.25-4.35L15.8 0Q10.05 3.25 4.1 3.5l.85 4.4" fill="none" stroke="#600" stroke-linecap="round" stroke-linejoin="round" transform="translate(.5 .5)"/><path d="m8.35 17.85-.8.45Q4.1 20.3 1 19.8v-2.15l-1 .05" fill="none" stroke="#000" stroke-linecap="round" stroke-linejoin="round" transform="translate(.5 .5)"/><path d="m1 17.65.65-.15q1.1-.25 1.8-.85" fill="none" stroke="#333" stroke-linecap="round" stroke-linejoin="round" transform="translate(.5 .5)"/></g></defs></svg>

<?xml version="1.0" encoding="UTF-8" standalone="no"?>
<svg xmlns:xlink="http://www.w3.org/1999/xlink" height="82.0px" width="84.85px" xmlns="http://www.w3.org/2000/svg">
  <g transform="matrix(1.0, 0.0, 0.0, 1.0, 37.4, 42.25)">
    <use height="38.0" transform="matrix(1.0, 0.0, 0.0, 1.0, -11.95, -17.45)" width="32.05" xlink:href="#sprite0"/>
    <use height="21.6" transform="matrix(1.0, 0.0, 0.0, 1.0, -12.25, -17.95)" width="32.65" xlink:href="#sprite1"/>
    <use height="20.9" transform="matrix(1.0, 0.0, 0.0, 1.0, 3.5, 2.85)" width="18.6" xlink:href="#sprite2"/>
    <use height="20.9" transform="matrix(-1.0, 0.0, 0.0, 1.0, 4.6, 2.85)" width="18.6" xlink:href="#sprite2"/>
  </g>
  <defs>
    <g id="sprite0" transform="matrix(1.0, 0.0, 0.0, 1.0, -0.05, 0.0)">
      <use height="38.0" transform="matrix(1.0, 0.0, 0.0, 1.0, 0.05, 0.0)" width="32.05" xlink:href="#shape0"/>
    </g>
    <g id="shape0" transform="matrix(1.0, 0.0, 0.0, 1.0, -0.05, 0.0)">
      <path d="M27.35 7.4 Q29.5 11.55 30.9 16.15 32.35 20.85 32.05 25.65 31.7 30.6 27.85 33.75 24.05 36.95 19.1 37.8 L16.5 38.0 Q12.9 38.0 9.45 36.85 4.8 35.25 2.35 31.35 -0.2 27.4 0.05 23.0 0.25 18.6 2.05 13.7 3.85 8.75 7.0 5.05 10.1 1.3 14.7 0.1 L16.5 0.0 Q18.4 0.05 20.2 0.8 24.95 2.85 27.35 7.4" fill="#ffffff" fill-rule="evenodd" stroke="none"/>
    </g>
    <g id="sprite1" transform="matrix(1.0, 0.0, 0.0, 1.0, 0.25, 0.5)">
      <use height="21.6" transform="matrix(1.0, 0.0, 0.0, 1.0, -0.25, -0.5)" width="32.65" xlink:href="#shape1"/>
    </g>
    <g id="shape1" transform="matrix(1.0, 0.0, 0.0, 1.0, 0.25, 0.5)">
      <path d="M31.9 20.6 Q31.6 18.35 30.9 16.15 29.5 11.55 27.35 7.4 24.95 2.85 20.2 0.8 17.55 -0.3 14.7 0.1 10.1 1.3 7.0 5.05 3.85 8.75 2.05 13.7 0.7 17.3 0.25 20.6" fill="none" stroke="#000000" stroke-linecap="round" stroke-linejoin="round" stroke-width="1.0"/>
    </g>
    <g id="sprite2" transform="matrix(1.0, 0.0, 0.0, 1.0, 0.5, 0.5)">
      <use height="20.9" transform="matrix(1.0, 0.0, 0.0, 1.0, -0.5, -0.5)" width="18.6" xlink:href="#shape2"/>
    </g>
    <g id="shape2" transform="matrix(1.0, 0.0, 0.0, 1.0, 0.5, 0.5)">
      <path d="M15.2 0.95 Q14.95 3.6 13.8 6.0 L12.5 8.05 Q11.6 9.15 10.35 10.0 8.9 10.9 7.25 10.85 L6.7 9.8 6.3 9.25 4.95 7.9 4.1 3.5 Q7.05 4.85 7.2 7.15 12.0 5.55 15.2 0.95" fill="#660000" fill-rule="evenodd" stroke="none"/>
      <path d="M15.8 0.0 L15.2 0.95 Q12.0 5.55 7.2 7.15 7.05 4.85 4.1 3.5 10.05 3.25 15.8 0.0" fill="#cc0000" fill-rule="evenodd" stroke="none"/>
      <path d="M4.95 7.9 L6.3 9.25 6.7 9.8 7.25 10.85 Q8.9 10.9 10.35 10.0 11.6 9.15 12.5 8.05 L13.8 6.0 Q14.95 3.6 15.2 0.95 L15.8 0.0 17.6 13.5 Q13.3 16.7 8.35 17.85 L6.85 18.15 5.75 12.35 5.35 10.05 4.95 7.9" fill="#990000" fill-rule="evenodd" stroke="none"/>
      <path d="M5.35 10.05 L5.75 12.35 2.3 12.7 1.2 12.7 0.0 12.7 0.0 10.45 5.35 10.05" fill="#333333" fill-rule="evenodd" stroke="none"/>
      <path d="M5.75 12.35 L6.85 18.15 8.35 17.85 7.55 18.3 Q4.1 20.3 1.0 19.8 L1.0 17.65 0.0 17.7 0.0 12.7 1.2 12.7 2.3 12.7 5.75 12.35 M3.45 16.65 Q2.75 17.25 1.65 17.5 L1.0 17.65 1.65 17.5 Q2.75 17.25 3.45 16.65" fill="#666666" fill-rule="evenodd" stroke="none"/>
      <path d="M4.95 7.9 L5.35 10.05 5.75 12.35 6.85 18.15 8.35 17.85 Q13.3 16.7 17.6 13.5 L15.8 0.0 Q10.05 3.25 4.1 3.5 L4.95 7.9" fill="none" stroke="#660000" stroke-linecap="round" stroke-linejoin="round" stroke-width="1.0"/>
      <path d="M8.35 17.85 L7.55 18.3 Q4.1 20.3 1.0 19.8 L1.0 17.65 0.0 17.7" fill="none" stroke="#000000" stroke-linecap="round" stroke-linejoin="round" stroke-width="1.0"/>
      <path d="M1.0 17.65 L1.65 17.5 Q2.75 17.25 3.45 16.65" fill="none" stroke="#333333" stroke-linecap="round" stroke-linejoin="round" stroke-width="1.0"/>
    </g>
  </defs>
</svg>
